yre/img/svg/icons/brand-1.svg

<svg width="62" height="62" viewBox="0 0 62 62" fill="none" xmlns="http://www.w3.org/2000/svg">
<g clip-path="url(#clip0)">
<path d="M28.61 42.0517C29.0835 41.5782 29.0835 40.8119 28.61 40.3384C28.136 39.8664 27.3682 39.8664 26.8938 40.3384C26.4208 40.8119 26.4208 41.5782 26.8938 42.0517C27.3682 42.5238 28.136 42.5238 28.61 42.0517Z" fill="black"/>
<path d="M28.61 42.0517C29.0835 41.5782 29.0835 40.8119 28.61 40.3384C28.136 39.8664 27.3682 39.8664 26.8938 40.3384C26.4208 40.8119 26.4208 41.5782 26.8938 42.0517C27.3682 42.5238 28.136 42.5238 28.61 42.0517Z" fill="url(#paint0_linear)"/>
<path d="M22.8633 13.3165C22.8633 20.6593 28.8488 26.6335 36.2059 26.6335C43.563 26.6335 49.5485 20.6593 49.5485 13.3165C49.5485 5.9738 43.563 0 36.2059 0C28.8488 0 22.8633 5.9738 22.8633 13.3165ZM47.1228 13.3165C47.1228 19.3244 42.2255 24.2121 36.2059 24.2121C30.1863 24.2121 25.2889 19.3244 25.2889 13.3165C25.2889 7.30914 30.1863 2.4214 36.2059 2.4214C42.2255 2.4214 47.1228 7.30914 47.1228 13.3165Z" fill="black"/>
<path d="M22.8633 13.3165C22.8633 20.6593 28.8488 26.6335 36.2059 26.6335C43.563 26.6335 49.5485 20.6593 49.5485 13.3165C49.5485 5.9738 43.563 0 36.2059 0C28.8488 0 22.8633 5.9738 22.8633 13.3165ZM47.1228 13.3165C47.1228 19.3244 42.2255 24.2121 36.2059 24.2121C30.1863 24.2121 25.2889 19.3244 25.2889 13.3165C25.2889 7.30914 30.1863 2.4214 36.2059 2.4214C42.2255 2.4214 47.1228 7.30914 47.1228 13.3165Z" fill="url(#paint1_linear)"/>
<path d="M14.0339 61.642C14.5041 62.115 15.2695 62.1202 15.7458 61.6519L21.6265 55.8697C22.6256 54.8725 22.9294 53.3962 22.4901 52.1129L23.755 50.8953C24.4361 50.2388 25.3328 49.8769 26.2807 49.8769H42.4058C45.2666 49.8769 47.9705 48.7805 50.0203 46.7895C50.1047 46.7077 49.38 47.5596 61.0211 33.6735C62.7477 31.6348 62.4894 28.5734 60.4448 26.8483C58.413 25.1393 55.3693 25.3848 53.6379 27.3885L46.4804 34.7307C45.5766 33.6206 44.1983 32.9285 42.7092 32.9285H29.1832C27.2585 32.1249 25.2162 31.7181 23.1091 31.7181C17.2681 31.7181 12.168 34.4105 9.43091 39.4586C8.2778 39.2405 7.06165 39.5887 6.18674 40.4619L0.416422 46.238C-0.0546829 46.7096 -0.0556307 47.4726 0.414526 47.9456L14.0339 61.642ZM23.1086 34.139C24.9665 34.139 26.7627 34.5122 28.4486 35.2482C28.6021 35.3154 28.7675 35.3499 28.9348 35.3499H42.7092C44.0244 35.3499 45.1353 36.4204 45.1353 37.7709C45.1353 39.1062 44.0471 40.1923 42.7092 40.1923H32.8127C32.143 40.1923 31.5998 40.7343 31.5998 41.4027C31.5998 42.0716 32.143 42.6132 32.8127 42.6132H42.7092C45.3846 42.6132 47.561 40.4411 47.561 37.7709C47.561 37.558 47.5458 37.347 47.5183 37.138C54.4422 30.0346 55.4186 29.0365 55.4603 28.9868C56.3248 27.9684 57.8594 27.8393 58.8803 28.6983C59.9021 29.5606 60.0315 31.0913 59.1646 32.1154L48.2852 45.0961C46.6965 46.6183 44.6107 47.456 42.4058 47.456H26.2807C24.7006 47.456 23.2048 48.0591 22.0702 49.1532L21.0393 50.1461L11.5367 40.6624C13.7576 36.5041 17.925 34.139 23.1086 34.139ZM7.90338 42.1728C8.30339 41.7736 8.91763 41.7017 9.40532 42.0025C9.61528 42.1302 9.01242 41.5825 19.9113 52.445C20.3962 52.9289 20.3701 53.6999 19.918 54.1512L14.9045 59.0805L2.98617 47.0946L7.90338 42.1728Z" fill="black"/>
<path d="M14.0339 61.642C14.5041 62.115 15.2695 62.1202 15.7458 61.6519L21.6265 55.8697C22.6256 54.8725 22.9294 53.3962 22.4901 52.1129L23.755 50.8953C24.4361 50.2388 25.3328 49.8769 26.2807 49.8769H42.4058C45.2666 49.8769 47.9705 48.7805 50.0203 46.7895C50.1047 46.7077 49.38 47.5596 61.0211 33.6735C62.7477 31.6348 62.4894 28.5734 60.4448 26.8483C58.413 25.1393 55.3693 25.3848 53.6379 27.3885L46.4804 34.7307C45.5766 33.6206 44.1983 32.9285 42.7092 32.9285H29.1832C27.2585 32.1249 25.2162 31.7181 23.1091 31.7181C17.2681 31.7181 12.168 34.4105 9.43091 39.4586C8.2778 39.2405 7.06165 39.5887 6.18674 40.4619L0.416422 46.238C-0.0546829 46.7096 -0.0556307 47.4726 0.414526 47.9456L14.0339 61.642ZM23.1086 34.139C24.9665 34.139 26.7627 34.5122 28.4486 35.2482C28.6021 35.3154 28.7675 35.3499 28.9348 35.3499H42.7092C44.0244 35.3499 45.1353 36.4204 45.1353 37.7709C45.1353 39.1062 44.0471 40.1923 42.7092 40.1923H32.8127C32.143 40.1923 31.5998 40.7343 31.5998 41.4027C31.5998 42.0716 32.143 42.6132 32.8127 42.6132H42.7092C45.3846 42.6132 47.561 40.4411 47.561 37.7709C47.561 37.558 47.5458 37.347 47.5183 37.138C54.4422 30.0346 55.4186 29.0365 55.4603 28.9868C56.3248 27.9684 57.8594 27.8393 58.8803 28.6983C59.9021 29.5606 60.0315 31.0913 59.1646 32.1154L48.2852 45.0961C46.6965 46.6183 44.6107 47.456 42.4058 47.456H26.2807C24.7006 47.456 23.2048 48.0591 22.0702 49.1532L21.0393 50.1461L11.5367 40.6624C13.7576 36.5041 17.925 34.139 23.1086 34.139ZM7.90338 42.1728C8.30339 41.7736 8.91763 41.7017 9.40532 42.0025C9.61528 42.1302 9.01242 41.5825 19.9113 52.445C20.3962 52.9289 20.3701 53.6999 19.918 54.1512L14.9045 59.0805L2.98617 47.0946L7.90338 42.1728Z" fill="url(#paint2_linear)"/>
<path d="M34.7498 6.05328V7.47188C33.3379 7.97139 32.3236 9.31714 32.3236 10.8956C32.3236 12.8979 33.9559 14.5275 35.9626 14.5275C36.6313 14.5275 37.1754 15.0705 37.1754 15.7379C37.1754 16.4054 36.6313 16.9484 35.9626 16.9484C35.4446 16.9484 34.8848 16.6234 34.3877 16.0326C33.9564 15.5208 33.1914 15.4551 32.6786 15.8851C32.1658 16.3155 32.0995 17.079 32.5307 17.5908C33.1791 18.3604 33.9417 18.8968 34.7498 19.1674V20.5803C34.7498 21.2491 35.2929 21.7907 35.9626 21.7907C36.6323 21.7907 37.1754 21.2491 37.1754 20.5803V19.1617C38.5873 18.6617 39.6016 17.3159 39.6016 15.7379C39.6016 13.7352 37.9693 12.1061 35.9626 12.1061C35.2939 12.1061 34.7498 11.563 34.7498 10.8956C34.7498 10.2282 35.2939 9.68468 35.9626 9.68468C36.3925 9.68468 36.846 9.90369 37.2745 10.3176C37.756 10.7826 38.5238 10.7698 38.9897 10.2897C39.4556 9.80908 39.4428 9.04279 38.9617 8.5778C38.3461 7.98321 37.73 7.6469 37.1754 7.46336V6.05328C37.1754 5.38443 36.6323 4.84235 35.9626 4.84235C35.2929 4.84235 34.7498 5.38443 34.7498 6.05328Z" fill="black"/>
<path d="M34.7498 6.05328V7.47188C33.3379 7.97139 32.3236 9.31714 32.3236 10.8956C32.3236 12.8979 33.9559 14.5275 35.9626 14.5275C36.6313 14.5275 37.1754 15.0705 37.1754 15.7379C37.1754 16.4054 36.6313 16.9484 35.9626 16.9484C35.4446 16.9484 34.8848 16.6234 34.3877 16.0326C33.9564 15.5208 33.1914 15.4551 32.6786 15.8851C32.1658 16.3155 32.0995 17.079 32.5307 17.5908C33.1791 18.3604 33.9417 18.8968 34.7498 19.1674V20.5803C34.7498 21.2491 35.2929 21.7907 35.9626 21.7907C36.6323 21.7907 37.1754 21.2491 37.1754 20.5803V19.1617C38.5873 18.6617 39.6016 17.3159 39.6016 15.7379C39.6016 13.7352 37.9693 12.1061 35.9626 12.1061C35.2939 12.1061 34.7498 11.563 34.7498 10.8956C34.7498 10.2282 35.2939 9.68468 35.9626 9.68468C36.3925 9.68468 36.846 9.90369 37.2745 10.3176C37.756 10.7826 38.5238 10.7698 38.9897 10.2897C39.4556 9.80908 39.4428 9.04279 38.9617 8.5778C38.3461 7.98321 37.73 7.6469 37.1754 7.46336V6.05328C37.1754 5.38443 36.6323 4.84235 35.9626 4.84235C35.2929 4.84235 34.7498 5.38443 34.7498 6.05328Z" fill="url(#paint3_linear)"/>
</g>
<defs>
<linearGradient id="paint0_linear" x1="27.7521" y1="39.9844" x2="27.7521" y2="42.4058" gradientUnits="userSpaceOnUse">
<stop stop-color="#EC407A"/>
<stop offset="1" stop-color="#C40135"/>
</linearGradient>
<linearGradient id="paint1_linear" x1="36.2059" y1="0" x2="36.2059" y2="26.6335" gradientUnits="userSpaceOnUse">
<stop stop-color="#EC407A"/>
<stop offset="1" stop-color="#C40135"/>
</linearGradient>
<linearGradient id="paint2_linear" x1="31.1135" y1="25.7105" x2="31.1135" y2="61.9999" gradientUnits="userSpaceOnUse">
<stop stop-color="#EC407A"/>
<stop offset="1" stop-color="#C40135"/>
</linearGradient>
<linearGradient id="paint3_linear" x1="35.9238" y1="4.84235" x2="35.9238" y2="21.7907" gradientUnits="userSpaceOnUse">
<stop stop-color="#EC407A"/>
<stop offset="1" stop-color="#C40135"/>
</linearGradient>
<clipPath id="clip0">
<rect width="62" height="62" fill="white"/>
</clipPath>
</defs>
</svg>

<svg width="62" height="62" fill="none" xmlns="http://www.w3.org/2000/svg"><g clip-path="url(#clip0)"><path d="M28.61 42.052a1.21 1.21 0 000-1.714 1.212 1.212 0 100 1.713z" fill="#000"/><path d="M28.61 42.052a1.21 1.21 0 000-1.714 1.212 1.212 0 100 1.713z" fill="url(#paint0_linear)"/><path d="M22.863 13.316c0 7.343 5.986 13.318 13.343 13.318s13.342-5.975 13.342-13.318C49.548 5.974 43.563 0 36.206 0S22.863 5.974 22.863 13.316zm24.26 0c0 6.008-4.898 10.896-10.917 10.896-6.02 0-10.917-4.888-10.917-10.896 0-6.007 4.897-10.895 10.917-10.895S47.123 7.31 47.123 13.317z" fill="#000"/><path d="M22.863 13.316c0 7.343 5.986 13.318 13.343 13.318s13.342-5.975 13.342-13.318C49.548 5.974 43.563 0 36.206 0S22.863 5.974 22.863 13.316zm24.26 0c0 6.008-4.898 10.896-10.917 10.896-6.02 0-10.917-4.888-10.917-10.896 0-6.007 4.897-10.895 10.917-10.895S47.123 7.31 47.123 13.317z" fill="url(#paint1_linear)"/><path d="M14.034 61.642c.47.473 1.236.478 1.712.01l5.88-5.782c1-.997 1.303-2.474.864-3.757l1.265-1.218a3.621 3.621 0 012.526-1.018h16.125c2.86 0 5.565-1.096 7.614-3.088.085-.081-.64.77 11.001-13.116a4.842 4.842 0 00-.576-6.825 4.87 4.87 0 00-6.807.54l-7.158 7.343a4.879 4.879 0 00-3.77-1.803H29.182a15.677 15.677 0 00-6.074-1.21c-5.84 0-10.941 2.692-13.678 7.74a3.628 3.628 0 00-3.244 1.004l-5.77 5.776a1.21 1.21 0 00-.002 1.708l13.619 13.696zm9.075-27.503c1.857 0 3.654.373 5.34 1.11.153.066.318.1.486.1h13.774a2.43 2.43 0 012.426 2.422 2.426 2.426 0 01-2.426 2.421h-9.896a1.212 1.212 0 100 2.421h9.896a4.852 4.852 0 004.852-4.842c0-.213-.015-.424-.043-.633 6.924-7.103 7.9-8.101 7.942-8.151a2.437 2.437 0 013.42-.289 2.423 2.423 0 01.285 3.417l-10.88 12.981a8.455 8.455 0 01-5.88 2.36H26.282c-1.58 0-3.076.603-4.21 1.697l-1.032.993-9.502-9.484c2.22-4.158 6.388-6.523 11.572-6.523zM7.903 42.173a1.21 1.21 0 011.502-.17c.21.127-.393-.42 10.506 10.442a1.21 1.21 0 01.007 1.706l-5.013 4.93L2.986 47.094l4.917-4.922z" fill="#000"/><path d="M14.034 61.642c.47.473 1.236.478 1.712.01l5.88-5.782c1-.997 1.303-2.474.864-3.757l1.265-1.218a3.621 3.621 0 012.526-1.018h16.125c2.86 0 5.565-1.096 7.614-3.088.085-.081-.64.77 11.001-13.116a4.842 4.842 0 00-.576-6.825 4.87 4.87 0 00-6.807.54l-7.158 7.343a4.879 4.879 0 00-3.77-1.803H29.182a15.677 15.677 0 00-6.074-1.21c-5.84 0-10.941 2.692-13.678 7.74a3.628 3.628 0 00-3.244 1.004l-5.77 5.776a1.21 1.21 0 00-.002 1.708l13.619 13.696zm9.075-27.503c1.857 0 3.654.373 5.34 1.11.153.066.318.1.486.1h13.774a2.43 2.43 0 012.426 2.422 2.426 2.426 0 01-2.426 2.421h-9.896a1.212 1.212 0 100 2.421h9.896a4.852 4.852 0 004.852-4.842c0-.213-.015-.424-.043-.633 6.924-7.103 7.9-8.101 7.942-8.151a2.437 2.437 0 013.42-.289 2.423 2.423 0 01.285 3.417l-10.88 12.981a8.455 8.455 0 01-5.88 2.36H26.282c-1.58 0-3.076.603-4.21 1.697l-1.032.993-9.502-9.484c2.22-4.158 6.388-6.523 11.572-6.523zM7.903 42.173a1.21 1.21 0 011.502-.17c.21.127-.393-.42 10.506 10.442a1.21 1.21 0 01.007 1.706l-5.013 4.93L2.986 47.094l4.917-4.922z" fill="url(#paint2_linear)"/><path d="M34.75 6.053v1.419a3.638 3.638 0 00-2.426 3.424 3.64 3.64 0 003.639 3.631c.668 0 1.212.543 1.212 1.21 0 .668-.544 1.211-1.212 1.211-.518 0-1.078-.325-1.575-.915a1.215 1.215 0 00-1.71-.148 1.209 1.209 0 00-.147 1.706c.648.77 1.41 1.306 2.219 1.576v1.413c0 .67.543 1.21 1.213 1.21s1.212-.54 1.212-1.21v-1.418a3.639 3.639 0 002.427-3.424 3.64 3.64 0 00-3.64-3.632 1.213 1.213 0 01-1.212-1.21c0-.668.544-1.211 1.213-1.211.43 0 .883.219 1.312.633a1.215 1.215 0 001.715-.028 1.21 1.21 0 00-.028-1.712c-.616-.595-1.232-.931-1.787-1.115v-1.41a1.212 1.212 0 00-2.425 0z" fill="#000"/><path d="M34.75 6.053v1.419a3.638 3.638 0 00-2.426 3.424 3.64 3.64 0 003.639 3.631c.668 0 1.212.543 1.212 1.21 0 .668-.544 1.211-1.212 1.211-.518 0-1.078-.325-1.575-.915a1.215 1.215 0 00-1.71-.148 1.209 1.209 0 00-.147 1.706c.648.77 1.41 1.306 2.219 1.576v1.413c0 .67.543 1.21 1.213 1.21s1.212-.54 1.212-1.21v-1.418a3.639 3.639 0 002.427-3.424 3.64 3.64 0 00-3.64-3.632 1.213 1.213 0 01-1.212-1.21c0-.668.544-1.211 1.213-1.211.43 0 .883.219 1.312.633a1.215 1.215 0 001.715-.028 1.21 1.21 0 00-.028-1.712c-.616-.595-1.232-.931-1.787-1.115v-1.41a1.212 1.212 0 00-2.425 0z" fill="url(#paint3_linear)"/></g><defs><linearGradient id="paint0_linear" x1="27.752" y1="39.984" x2="27.752" y2="42.406" gradientUnits="userSpaceOnUse"><stop stop-color="#EC407A"/><stop offset="1" stop-color="#C40135"/></linearGradient><linearGradient id="paint1_linear" x1="36.206" y1="0" x2="36.206" y2="26.634" gradientUnits="userSpaceOnUse"><stop stop-color="#EC407A"/><stop offset="1" stop-color="#C40135"/></linearGradient><linearGradient id="paint2_linear" x1="31.113" y1="25.71" x2="31.113" y2="62" gradientUnits="userSpaceOnUse"><stop stop-color="#EC407A"/><stop offset="1" stop-color="#C40135"/></linearGradient><linearGradient id="paint3_linear" x1="35.924" y1="4.842" x2="35.924" y2="21.791" gradientUnits="userSpaceOnUse"><stop stop-color="#EC407A"/><stop offset="1" stop-color="#C40135"/></linearGradient><clipPath id="clip0"><path fill="#fff" d="M0 0h62v62H0z"/></clipPath></defs></svg>
